icon-svg/rooms-toilet.svg

<?xml version="1.0" encoding="UTF-8"?>
<svg width="32px" height="32px" viewBox="0 0 32 32" fill="#44739e" sversion="1.1" xmlns="http://www.w3.org/2000/svg" xmlns:xlink="http://www.w3.org/1999/xlink">

            <path d="M8.9999875,19 C8.44699441,19 8,18.553 8,18 C8,17.447 8.44699441,17 8.9999875,17 L12.80294,17 C10.5459682,15.506 8.9999875,12.488 8.9999875,9 C8.9999875,4.029 12.1339483,0 15.9999,0 C19.8658517,0 22.9998125,4.029 22.9998125,9 C22.9998125,12.488 21.4538318,15.506 19.19686,17 L22.9998125,17 C23.5528056,17 23.9998,17.447 23.9998,18 C23.9998,18.553 23.5528056,19 22.9998125,19 L8.9999875,19 Z M23.20001,21 C23.6410045,21 24,21.348 24,21.777 L24,21.997 C24,25.283 21.9000262,27.812 18.9350633,28.949 C18.5120686,29.112 18.2320721,29.509 18.2320721,29.953 L18.2320721,30.915 C18.2320721,31.515 17.7320783,32 17.116086,32 L14.8841139,32 C14.2671217,32 13.7671279,31.515 13.7671279,30.915 L13.7671279,29.937 C13.7671279,29.493 13.4881314,29.1 13.0651367,28.933 C10.0701741,27.747 7.99720003,25.082 8.0002,21.77 C8.0002,21.344 8.36219547,21 8.80019,21 L23.20001,21 Z"></path>
</svg>

<svg xmlns="http://www.w3.org/2000/svg" fill="#44739e" viewBox="0 0 24 24"><path d="M9 19c-.553 0-1-.447-1-1s.447-1 1-1h3.803C10.546 15.506 9 12.488 9 9c0-4.971 3.134-9 6.9999-9s7 4.029 7 9c0 3.488-1.546 6.506-3.803 8h3.803c.553 0 .9999.447.9999 1s-.447 1-1 1zm14.2 2c.441 0 .8.348.8.777v.22c0 3.286-2.1 5.815-5.065 6.952-.423.163-.703.56-.703 1.004v.962c0 .6-.5 1.085-1.116 1.085h-2.2319c-.617 0-1.117-.485-1.117-1.085v-.978c0-.444-.279-.837-.702-1.004-2.995-1.186-5.0679-3.851-5.0649-7.163 0-.426.362-.77.8-.77z"/></svg>
